!!!COM: Bach, Johann Sebastian
!!!CDT: 1685/3//-1750/7/28/
!!!OTL@@DE: Komm, Gott Schoepfer, heiliger Geist
!!!AGN: 4-Part Chorale
!!!SCT: BH 187
!!!SCT: BWV 370
**harm	**root	**kern	**kern	**kern	**kern
!	!	!bass	!tenor	!alto	!soprno
*	*Iorgan	*Iorgan	*Iorgan	*Iorgan	*Iorgan
*M4/4	*M4/4	*M4/4	*M4/4	*M4/4	*M4/4
*met(c)	*met(c)	*met(c)	*met(c)	*met(c)	*met(c)
*MM60	*MM60	*MM60	*MM60	*MM60	*MM60
*k[]	*k[]	*k[]	*k[]	*k[]	*k[]
*G:	*G:	*G:	*G:	*G:	*G:
I	4GG	4G	4B	8d	4g
.	.	.	.	8e	.
=1	=1	=1	=1	=1	=1
-VII	4FF	4F	4c	[4f	4a
IV	4CC	4C	4c	8f]	4g
.	.	.	.	[8e	.
v	4DD	4D	4A	8e]	4f
.	.	.	.	16d	.
.	.	.	.	16c	.
vi	4EE	4E	8G	8B	4g
.	.	.	16c	[8e	.
.	.	.	16B	.	.
=2	=2	=2	=2	=2	=2
ii	8AA	4AA	8c	8e]	4cc
-VIIb	8FF	.	8f	8c	.
I	4GG	4GG	4B	8g	4dd
.	.	.	.	8f	.
IV;	4CC;	4C;	4G;	4e;	4cc;
-VII	4FF	4F	4A	8c	4cc
.	.	.	.	8d	.
=3	=3	=3	=3	=3	=3
vi	4EE	4E	8B	4e	4g
.	.	.	8c	.	.
iiiob	4BB	4D	4d	4f	4b
IV	4CC	4.C	4e	4g	4cc
I	4GG	.	[4d	4g	4dd
.	.	8BB	.	.	.
=4	=4	=4	=4	=4	=4
IV	4CC	4C	8d]	[4g	4ee
.	.	.	16c	.	.
.	.	.	16B	.	.
IV	8CC	4CC	8c	8g]	4ee
vii7c	8FF#	.	8A	8f#	.
I;	4GG;	4GG;	4B;	4g;	4dd;
I	4GG	4G	4B	4g	4dd
!!linebreak: 2
=5	=5	=5	=5	=5	=5
IV	4CC	4C	8c	4g	8ee
.	.	.	8B	.	8dd
IVb	4CC	4E	4c	[4g	4cc
-VII	4FF	4F	4c	8g]	4a
.	.	.	.	[8f	.
IV	4CC	4c	4c	8f]	4g
.	.	.	.	8e	.
=6	=6	=6	=6	=6	=6
I	4GG	8G	4d	4g	4b
.	.	8F	.	.	.
vii/v	4CC#	4E	4e	4g	4cc#
v;	4DD;	4D;	4f;	4a;	4dd;
vi	4EE	4E	4B	4e	4g
=7	=7	=7	=7	=7	=7
ii	4AA	8AA	4A	8e	4cc
.	.	8BB	.	8d	.
iib	4AA	4C	4A	[4e	4a
v	8DD	4D	8A	8e]	4f
-IIIb	8BB-	.	8B-	16d	.
.	.	.	.	16e	.
-VIIb	4FF	4AA	4c	[4f	4a
=8	=8	=8	=8	=8	=8
I7b	4GG	4BBn	[4d	4f]	2g
IV	4CC	4C	8d]	4e	.
.	.	.	[8c	.	.
I;	4GG;	4GG;	8c]	4d;	4g;
.	.	.	8B;	.	.
==	==	==	==	==	==
*-	*-	*-	*-	*-	*-
!!chor2scor: -l 2 -s 0.6 -o %b.pmx
!!!YEC: Copyright 1994, David Huron
!!!YEC: Changes/Additions 2001 by Craig Stuart Sapp
!!!YEN: United States of America
!!!SMA: 371 Bach Chorales, edited by Ludwig Erk, C.F. Peters
!!!PDT: 1850, 1865
!!!ONB: Harmony and Root analysis done manually
!!!ONB: Actual key is G Mixolydian 
